X: 0
T: As Jacob With Travel
L: 1/4
M: 2/4
Q: 1/4=100
K: G
[V: P1]  D/ | G G/ G/ | (G/B/) A/ G/ | A A/ A/ | (A/c/) (B/A/) | G G/ G/ | (G/B/) A/ G/ | A D/ D/ | D (B/c/) | d d/ e/ | d A/ B/ | c c/ c/ | c B/ c/ | d d/ e/ | (d/B/) c/ A/ | G G/ G/ | G"^Chorus" D/ D/ | G G/ G/ | (G/B/) A/ G/ | A A/ A/ | (A/c/) B/ A/ | G G/ G/ | (G/B/) A/ G/ | A D/ D/ | D B/ c/ | d d/ e/ | (d/B/) c/ A/ | G G/ G/ | G3/|]

